icon-themes/breeze_svg/cmd/sc_extrusiondepthfloater.svg

<svg viewBox="0 0 16 16" xmlns="http://www.w3.org/2000/svg"><path d="m14 2-4 4v8l4-4zm-4 4 3.308594-3.3984375-7.0878909-.0429687-3.7070312 3.7070312z" fill="#b3b3b3"/><path d="m6.2207031 2-4.2207031 4v8h8l4-4v-1-6-1h-1-6zm.2441407.8007812 6.4199222.0214844-3.5976566 3.1777344h-2.2871094l1-1h2l-1-2-4.8535156 1.9414062zm6.7128902.8457032.021485 6.1113281-3.199219 3.1093755v-5.867188zm-9.0937496 1.3535156h1.9160156l-1 1h-2zm-1.0839844 2h1 2 3v6h-6z" fill="#4d4d4d"/></svg>

<svg xmlns="http://www.w3.org/2000/svg" viewBox="0 0 16 16">
 <path 
     style="fill:#b3b3b3" 
     d="M 14 2 L 10 6 L 10 14 L 14 10 L 14 2 z M 10 6 L 13.308594 2.6015625 L 6.2207031 2.5585938 L 2.5136719 6.265625 L 10 6 z "
     />
 <path 
     style="fill:#4d4d4d" 
     d="M 6.2207031 2 L 2 6 L 2 14 L 10 14 L 14 10 L 14 9 L 14 3 L 14 2 L 13 2 L 7 2 L 6.2207031 2 z M 6.4648438 2.8007812 L 12.884766 2.8222656 L 9.2871094 6 L 7 6 L 8 5 L 10 5 L 9 3 L 4.1464844 4.9414062 L 6.4648438 2.8007812 z M 13.177734 3.6464844 L 13.199219 9.7578125 L 10 12.867188 L 10 7 L 13.177734 3.6464844 z M 4.0839844 5 L 6 5 L 5 6 L 3 6 L 4.0839844 5 z M 3 7 L 4 7 L 6 7 L 9 7 L 9 13 L 3 13 L 3 7 z "
     />
 </svg>
